X:1
T:It chaunced in Iconium
T:Christopher Tye
T:Source : Actes of the Apostles---Chapter XIV---1553. Editor : André Vierendeels (17/01/17).
T:It chaunced in Iconium
T:©
T:©
T:©
C:Christopher Tye
Z:©
%%score [ 1 [ 2 3 ] 4 ]
L:1/8
Q:1/4=116
M:4/4
K:F
V:1 treble nm="Alto" snm="A"
V:2 treble-8 nm="Tenor 1" snm="T 1"
V:3 treble-8 nm="Tenor 2" snm="T 2"
V:4 bass nm="Bass" snm="B"
V:1
 z4 F4 | G2 G2 A2 A2 | BAGF EF E2 | F4 z2 G2 | G2 ^F2 G2 G2 | E4 z2 A2 | B3 B G2 G2 | A2 A2 D2 G2 | %8
w: It|chaun- ced in I-|co- * * * * * ni-|um as|they oft tymes dyd|use to-|get- her they in-|to dyd cum the|
 G2 ^F2 G3 F | E2 E2 FG A2- | AG B2 A2 G2- | GF F3 E/D/ E2 | F2 F2 D2 D2 | E3 E C2 C2 | %14
w: Si- na goge of|Jues, where they dyd preache|_ _ _ and one-|* * * * * lye|seke Gods grace then|to at- cheve, that|
 DE F2 EF D2 | F2 E2 D2 A2 | B3 A G2 G2 | A2 A2 GF F2- | F2 E2 F4- | F8 |] %20
w: they so spake to _ Jue|and Greke, that ma-|nye dyd be- le-|ve, be- le- * *|* * ve.|_|
V:2
 c4 d2 d2 | e2 e2 fedc | Bc B2 c4 | z2 d2 d2 ^c2 | d2 d2 =B4 | z2 e2 f3 f | d2 d2 e2 e2 | %7
w: It chaun- ced|in I- co- * * *|* * ni- um|as they oft|tymes dyd use|to- get- her|they in- to dyd|
 A2 d2 d2 ^c2 | d3 c =B2 B2 | cd e3 d f2 | e2 d2 c2 c2- | cB/A/ B2 c2 c2 | A2 A2 =B3 B | %13
w: cum the Si- na-|goge of Jues, wher|theu dyd preach _ _|_ _ and one-|* * * lye seke Gods|grace then to at-|
 G2 G2 A=B c2 |"^b" Bc A2 c2 B2 | A2 e2 f3 e | d2 d2 e2 e2 | dc c4 B2 | c3 B A4- | A8 |] %20
w: cheve, that they so spake|to _ _ Jue and|Greke that ma- nye|dyd be- leve, be-|le- * * *|* * ve.|_|
V:3
 z4 B4 | G2 G2 F2 F2 | D3 D C4 | z2 F2 G2 G2 | A2 A2 G4 | z2 c2 d3 d | B2 G2 c2 c2 | F4 z2 G2 | %8
w: It|chau- ced in I|co- ni- um|as they oft|tymes dyd use|to- get- her|they in- to dyd|cum the|
 B2 A2 G2 G2 | C4 z2 c2 |"^b" =B2 B2 c4 | F4 G2 G2 | F2 F2 G3 G | E2 C2 F4 | z2 D2 C2 G2 | %15
w: Si- na goge of|Jues, where|they dyd preache|and on- lye|seke Gods grace then|to at- cheve,|that they so|
 c2 c2 B2 F2 | G4 z2 c2 | A2 A2 BAGF | G4 F4- | F8 |] %20
w: spake to Jue and|Greke, that|ma- nye dyd _ _ _|be- leve.|_|
V:4
 F,4 D,2 D,2 | C,2 C,2 A,,3 A,, | G,,4 z2 C,2 | D,2 D,2 E,2 E,2 |"^-natural" D,4 z2 G,2 | %5
w: It chaun- ced|in I- co- ni-|um as|they oft tymes dyd|use to-|
 A,3 A, F,2 D,2 | G,2 G,2 C,4 | z2 D,2 F,2 E,2 | D,2 D,2 G,,4 | z2 G,2 F,2 F,2 | G,4 C,4 | %11
w: get- her they in-|to dyd cum|the Si- na-|goge of Jues,|where they dyd|preache and|
 D,2 D,2 C,2 C,2 | D,3 D, =B,,2 G,,2 | C,4 z2 A,,2 | G,,2 D,2 G,2 G,2 | F,2 C,2 D,4 | %16
w: on- lye seke Gods|grace then to at-|vheve, that|they so spake tu|Jue and Greke,|
 z2 G,2 E,2 E,2 | F,E, D,C, D,4 | C,2 C,2 F,,4- | F,,8 |] %20
w: that ma- nye|dyd _ _ _ be-|leve, be- leve.-||

